symbolic/48x48/places/folder-yellow-games.svg

<svg xmlns="http://www.w3.org/2000/svg" width="48" height="48" version="1"><rect style="opacity:.2" width="40" height="26" x="4" y="17" rx="2" ry="2"/><path style="fill:#b58f1b" d="M4 34c0 1.108.892 2 2 2h36c1.108 0 2-.892 2-2V12c0-1.108-.892-2-2-2H24c-3 0-4-4-7-4H6c-1.108 0-2 .892-2 2"/><rect style="opacity:.2" width="40" height="26" x="4" y="15" rx="2" ry="2"/><rect style="fill:#b2bfd9" width="36" height="16" x="6" y="13" rx="2" ry="2"/><rect style="fill:#e2b322" width="40" height="26" x="4" y="16" rx="2" ry="2"/><path style="opacity:.1;fill:#f4f4f7" d="M6 6c-1.108 0-2 .892-2 2v1c0-1.108.892-2 2-2h11c3 0 4 4 7 4h18c1.108 0 2 .892 2 2v-1c0-1.108-.892-2-2-2H24c-3 0-4-4-7-4z"/><path style="fill:#4f3e0c" d="M19.78 23.002c-.24 0-.52.07-.81.221-1.03.551-1.99 2.334-2.51 4.659-.44 1.984-.6 4.679-.34 5.763.23.942.63 1.355 1.34 1.355 1.04-.02 2.35-1.185 3.19-2.759.6-.872 2-1.263 3.35-1.223 1.34-.05 2.74.351 3.34 1.223.84 1.574 2.15 2.739 3.2 2.759.7 0 1.1-.413 1.33-1.355.26-1.084.1-3.779-.34-5.763-.52-2.325-1.48-4.108-2.51-4.659-.57-.311-1.04-.301-1.46 0-.53.381-1.63.78-3.56.78-1.94 0-3.04-.399-3.57-.78a1.058 1.058 0 0 0-.65-.221zm.25 3.006h.99v1.002h.99v1.002h-.99v1.002h-.99v-1.002h-.99V27.01h.99zm7.44 0c.27 0 .49.22.49.501a.494.494 0 1 1-.99 0c0-.281.22-.501.5-.501zm-.99 1.002c.27 0 .49.22.49.501a.494.494 0 1 1-.99 0c0-.281.22-.501.5-.501zm1.98 0c.27 0 .49.22.49.501a.494.494 0 1 1-.99 0c0-.281.22-.501.5-.501zm-.99 1.002c.27 0 .49.22.49.501a.494.494 0 1 1-.99 0c0-.281.22-.501.5-.501z"/></svg>

<svg xmlns="http://www.w3.org/2000/svg" width="48" height="48" version="1">
 <rect style="opacity:0.2" width="40" height="26" x="4" y="17" rx="2" ry="2"/>
 <path style="fill:#b58f1b" d="M 4,34 C 4,35.108 4.892,36 6,36 H 42 C 43.108,36 44,35.108 44,34 V 12 C 44,10.892 43.108,10 42,10 H 24 C 21,10 20,6 17,6 H 6 C 4.892,6 4,6.892 4,8"/>
 <rect style="opacity:0.2" width="40" height="26" x="4" y="15" rx="2" ry="2"/>
 <rect style="fill:#b2bfd9" width="36" height="16" x="6" y="13" rx="2" ry="2"/>
 <rect style="fill:#e2b322" width="40" height="26" x="4" y="16" rx="2" ry="2"/>
 <path style="opacity:0.1;fill:#f4f4f7" d="M 6,6 C 4.892,6 4,6.892 4,8 V 9 C 4,7.892 4.892,7 6,7 H 17 C 20,7 21,11 24,11 H 42 C 43.108,11 44,11.892 44,13 V 12 C 44,10.892 43.108,10 42,10 H 24 C 21,10 20,6 17,6 Z"/>
 <path style="fill:#4f3e0c" d="M 19.78,23.002 C 19.54,23.002 19.26,23.072 18.97,23.223 17.94,23.774 16.98,25.557 16.46,27.882 16.02,29.866 15.86,32.561 16.12,33.645 16.35,34.587 16.75,35 17.46,35 18.5,34.98 19.81,33.815 20.65,32.241 21.25,31.369 22.65,30.978 24,31.018 25.34,30.968 26.74,31.369 27.34,32.241 28.18,33.815 29.49,34.98 30.54,35 31.24,35 31.64,34.587 31.87,33.645 32.13,32.561 31.97,29.866 31.53,27.882 31.01,25.557 30.05,23.774 29.02,23.223 28.45,22.912 27.98,22.922 27.56,23.223 27.03,23.604 25.93,24.003 24,24.003 22.06,24.003 20.96,23.604 20.43,23.223 20.22,23.072 20.02,23.002 19.78,23.002 Z M 20.03,26.008 H 21.02 V 27.01 H 22.01 V 28.012 H 21.02 V 29.014 H 20.03 V 28.012 H 19.04 V 27.01 H 20.03 Z M 27.47,26.008 C 27.74,26.008 27.96,26.228 27.96,26.509 27.96,26.789 27.74,27.01 27.47,27.01 27.19,27.01 26.97,26.789 26.97,26.509 26.97,26.228 27.19,26.008 27.47,26.008 Z M 26.48,27.01 C 26.75,27.01 26.97,27.23 26.97,27.511 26.97,27.791 26.75,28.012 26.48,28.012 26.2,28.012 25.98,27.791 25.98,27.511 25.98,27.23 26.2,27.01 26.48,27.01 Z M 28.46,27.01 C 28.73,27.01 28.95,27.23 28.95,27.511 28.95,27.791 28.73,28.012 28.46,28.012 28.18,28.012 27.96,27.791 27.96,27.511 27.96,27.23 28.18,27.01 28.46,27.01 Z M 27.47,28.012 C 27.74,28.012 27.96,28.232 27.96,28.513 27.96,28.793 27.74,29.014 27.47,29.014 27.19,29.014 26.97,28.793 26.97,28.513 26.97,28.232 27.19,28.012 27.47,28.012 Z"/>
</svg>
